X:1
T:Fata la parte
T:Juan del Encina (1464 - 1523)
T:Edición: Byrt Janssen (Granada, abril 2009)
T:Fata la parte
T:Edición: Byrt Janssen (Granada, abril 2009)
T:Edición: Byrt Janssen (Granada, abril 2009)
C:Juan del Encina (1464 - 1523)
Z:letrsita
Z:Edición: Byrt Janssen (Granada, abril 2009)
%%score [ 1 2 3 4 ]
L:1/8
M:3/4
K:Bb
V:1 treble nm="SOPRANO" snm="S."
V:2 treble nm="CONTRALTO" snm="A."
V:3 treble-8 transpose=-12 nm="TENOR" snm="T."
V:4 bass nm="BAJO" snm="B."
V:1
 G2 G2 G2 | F4 F2 | A2 A2 A2 | G4 G2 | B2 B2 B2 | A4 B2 | c2 c2 c2 | B2 B2 A2 | G2 A2 A2 | G6 || %10
w: Fa- ta la|par- te,|fa- ta la|par- te,|tut- t'o- gni|cal, que\_es|mor- ta la|mu- ller de|Mi- çer Co-|tal!|
w: ||||||||||
w: ||||||||||
w: ||||||||||
w: ||||||||||
[M:6/8] d2 d d2 d | c3 c3 | B2 B A2 A | G3 G3 | d2 d d2 d | c3 c3 | B2 B A2 A | G3 G3 | d2 c B2 B | %19
w: |||||||||
w: 1.Por- que l'hai tro-|va- to|con un es- pa-|ño- lo|en su ca- sa|so- lo|lue- do l'hai ma-|ça- to.|Lui se l'ha\_es ca-|
w: 2.Res- ta- va di-|cend- do,|por- que l'ho- vo|vis- to,|¡O, vá- las- me,|Cris- to!|el de- do mor-|dien- do,|gri- dan- do\_y pia-|
w: 3.¡Guar- da si te|pi- llo,|don es- pa- ño-|le- to!|Su- pra de mi|le- to|te fa- ro\_un mar-|ti- llo,|tal que\_en es- cri-|
w: 4.Mi- çer me com-|pa- re,|gra- cia de- lla\_e|de ti.|La- sa fa- re\_a|mi _|y non te cu-|ra- re.|A- ssai mal me|
 A3 A3 | B2 A G2 ^F | G3 G3 |] %22
w: |||
w: pa- to|por for- sa\_y por|ar- te.|
w: gen- do:|¡Espa- ño- le- to,|guar- te!|
w: vi- llo|pian- ge- ran le|car- te.|
w: pa- re|lui en- cor- nu-|dar- te.|
V:2
 D2 E2 E2 | D4 D2 | C2 C2 D2 | E4 E2 | G2 G2 G2 | ^F4 G2 | A2 A2 A2 | G2 G2 F2 | G2 ^F2 F2 | G6 || %10
[M:6/8] B2 B B2 B | A3 A3 | G2 G ^F2 F | G3 G3 | B2 B B2 B | A3 A3 | G2 G ^F2 F | G3 G3 | %18
 B2 A G2 G | F3 F3 | G2 F G D2 | D3 D3 |] %22
V:3
 G2 B2 c2 | A4 A2 | A2 A2 A2 | B4 c2 | d2 d2 d2 | d4 d2 | f2 f2 f2 | d2 d2 d2 | B2 d2 d2 | d6 || %10
w: Fa- ta la|par- te,|fa- ta la|par- te,|tut- t'o- gni|cal, que\_es|mor- ta la|mu- ller de|Mi- çer Co-|tal!|
w: ||||||||||
w: ||||||||||
w: ||||||||||
w: ||||||||||
[M:6/8] f2 f f2 f | f3 f3 | d2 d d2 d | d3 d3 | f2 f f2 f | f3 f3 | d2 d d2 d | d3 d3 | f2 f d2 d | %19
w: |||||||||
w: 1.Por- que l'hai tro-|va- to|con un es- pa-|ño- lo|en su ca- sa|so- lo|lue- do l'hai ma-|ça- to.|Lui se l'ha\_es- ca-|
w: 2.Res- ta- va di-|cen- do,|por- que l'ho- vo|vis- to,|¡O, vá- las- me,|Cris- to!|el de- do mor-|dien- do,|gri- dan- do\_y pia-|
w: 3.¡Guar- da si te|piu- llo,|don es- pa- ño-|le- to!|Su- pra de mi|le- to|te fa- ro\_un mar-|ti- llo,|tal que\_en es- cri-|
w: 4.Mi- çer mi com-|pa- re,|gra- cia de- lla\_e|de ti.|La- sa fa- re\_a|mi _|y non te cu-|ra- re.|A- ssai mal me|
 d3 d3 | d2 d G A2 | G3 G3 |] %22
w: |||
w: pa- to|por for- sa\_y por|ar- te.|
w: gen- do:|¡Espa- ño- le- to,|guar- te!|
w: vi- llo|pian- ge- ran le|car- te.|
w: pa- re|lui en- cor- nu-|dar- te.|
V:4
 G,2 E,2 C,2 | D,4 D,2 | F,2 F,2 F,2 | E,4 C,2 | G,2 G,2 G,2 | D,4 G,2 | F,2 F,2 F,2 | %7
 G,2 G,2 D,2 | E,2 D,2 D,2 | G,6 ||[M:6/8] B,2 B, B,2 B, | F,3 F,3 | G,2 G, D,2 D, | G,3 G,3 | %14
 B,2 B, B,2 B, | F,3 F,3 | G,2 G, D,2 D, | G,3 G,3 | B,2 F, G,2 G, | D,3 D,3 | G,2 D, E, D,2 | %21
 G,3 G,3 |] %22

